src/javascript.svg

<?xml version="1.0" encoding="UTF-8" standalone="no"?>
<svg
   xmlns:dc="http://purl.org/dc/elements/1.1/"
   xmlns:cc="http://creativecommons.org/ns#"
   xmlns:rdf="http://www.w3.org/1999/02/22-rdf-syntax-ns#"
   xmlns:svg="http://www.w3.org/2000/svg"
   xmlns="http://www.w3.org/2000/svg"
   xmlns:sodipodi="http://sodipodi.sourceforge.net/DTD/sodipodi-0.dtd"
   xmlns:inkscape="http://www.inkscape.org/namespaces/inkscape"
   viewBox="0 0 16 16"
   id="svg2"
   version="1.1"
   inkscape:version="0.91 r13725"
   sodipodi:docname="javascript.svg"
   width="16"
   height="16">
  <metadata
     id="metadata12">
    <rdf:RDF>
      <cc:Work
         rdf:about="">
        <dc:format>image/svg+xml</dc:format>
        <dc:type
           rdf:resource="http://purl.org/dc/dcmitype/StillImage" />
        <dc:title></dc:title>
      </cc:Work>
    </rdf:RDF>
  </metadata>
  <defs
     id="defs10" />
  <sodipodi:namedview
     pagecolor="#ffffff"
     bordercolor="#666666"
     borderopacity="1"
     objecttolerance="10"
     gridtolerance="10"
     guidetolerance="10"
     inkscape:pageopacity="0"
     inkscape:pageshadow="2"
     inkscape:window-width="1366"
     inkscape:window-height="705"
     id="namedview8"
     showgrid="false"
     inkscape:zoom="0.37460317"
     inkscape:cx="315"
     inkscape:cy="315"
     inkscape:window-x="-8"
     inkscape:window-y="-8"
     inkscape:window-maximized="1"
     inkscape:current-layer="svg2" />
  <path
     d="M 0,0 0,16 16,16 16,0 0,0 Z m 12.177778,7.26071 c 0.955936,0 1.643155,0.33266 2.138393,1.20377 L 13.145387,9.21627 C 12.887609,8.75405 12.609524,8.57192 12.177778,8.57192 c -0.440381,0 -0.719494,0.2794 -0.719494,0.64435 0,0.45105 0.279375,0.63363 0.924454,0.913 l 0.375843,0.16101 c 1.277461,0.54781 1.99876,1.10628 1.99876,2.3619 0,1.35365 -1.063355,2.09524 -2.491418,2.09524 -1.396318,0 -2.298435,-0.66537 -2.7398318,-1.5375 l 1.2218258,-0.70987 c 0.322285,0.52622 0.741597,0.91305 1.483184,0.91305 0.622984,0 1.020982,-0.3114 1.020982,-0.74162 0,-0.51556 -0.408928,-0.69813 -1.094642,-0.99807 L 11.781597,11.5121 C 10.696645,11.04988 9.9758928,10.47085 9.9758928,9.24673 c 0,-1.12762 0.8591552,-1.98602 2.2018852,-1.98602 z m -4.9678575,0.0858 1.5034723,0 0,5.13269 c 0,1.55682 -0.9127718,2.26542 -2.2450893,2.26542 -1.2038095,0 -1.9009166,-0.62301 -2.2554563,-1.37336 l 1.2238591,-0.74092 c 0.2361905,0.41904 0.4510377,0.77331 0.9676091,0.77331 0.4939683,0 0.8056054,-0.19325 0.8056051,-0.94474 l 0,-5.1124 z"
     id="rect4"
     style="fill:#000000"
     inkscape:connector-curvature="0" />
</svg>

<svg xmlns="http://www.w3.org/2000/svg" viewBox="0 0 16 16">
 <path d="m0 0v16h16v-16h-16zm12.178 7.2607c0.95594 0 1.6432 0.33266 2.1384 1.2038l-1.171 0.7518c-0.257-0.4623-0.535-0.6444-0.967-0.6444-0.44038 0-0.71949 0.2794-0.71949 0.64435 0 0.45105 0.27938 0.63363 0.92445 0.913l0.37584 0.16101c1.2775 0.54781 1.9988 1.1063 1.9988 2.3619 0 1.3536-1.0634 2.0952-2.4914 2.0952-1.3963 0-2.2984-0.66537-2.7398-1.5375l1.2218-0.70987c0.32228 0.52622 0.7416 0.91305 1.4832 0.91305 0.62298 0 1.021-0.3114 1.021-0.74162 0-0.51556-0.40893-0.69813-1.0946-0.99807l-0.376-0.161c-1.085-0.462-1.8061-1.041-1.8061-2.2653 0-1.1276 0.85916-1.986 2.2019-1.986zm-4.9679 0.0858h1.5035v5.1327c0 1.5568-0.91277 2.2654-2.2451 2.2654-1.2038 0-1.9009-0.62301-2.2555-1.3734l1.2239-0.74092c0.23619 0.41904 0.45104 0.77331 0.96761 0.77331 0.49397 0 0.80561-0.19325 0.80561-0.94474v-5.1124z"/>
</svg>
